!!!OTL@@FUR: 'O ai mangj&acirc;t un gran di ue
!!!OTL@IT: Ho mangiato un acino di uva
!!!OTL@EN: I ate a single grape
**kern
*clefG2
*k[f#c#]
*D:
*M2/4
*MM130
*>[A,A]
=1
*>A
4a
4dd
=2
4cc#
8dd
8cc#
=3
8b
8a
8b
8g
=4
4.f#
8g
=5
4a
4b
=6
4.e
8f#
=7
4g
4a
=9
4g
4f#
=10
4a
4dd
=11
4cc#
8dd
8cc#
=12
8b
8a
8b
8g
=13
4.f#
8g
=14
4a
4b
=15
4.e
8f#
=16
4g
4a
=17
2f#
==:|!
*-
!!!ARE: Friuli
!!!ENC: Kelly Leistikow
!!!END: 2002/03/07
!!!ref: @{OTL@@FUR}/@{OTL@EN}
